icons/diabetes.svg

<svg width="48" height="48" viewBox="0 0 48 48" fill="none" xmlns="http://www.w3.org/2000/svg">
<path fill-rule="evenodd" clip-rule="evenodd" d="M40.6581 24.0025L33.908 24.008C34.0188 24.3207 34.0792 24.6573 34.0795 25.0079L34.08 25.6478C34.0808 26.6347 33.6051 27.5106 32.8701 28.0579C33.1595 28.5189 33.327 29.0641 33.3275 29.6485L33.328 30.2884C33.3294 31.9452 31.9873 33.2895 30.3305 33.2908L29.7889 33.2913C29.8997 33.604 29.9602 33.9405 29.9605 34.2911L29.961 34.9311C29.9623 36.5879 28.6203 37.9322 26.9634 37.9335L15.9 37.9426C9.32199 37.948 3.98513 32.6198 3.97974 26.0419C3.97564 21.0295 7.11004 16.551 11.8207 14.8384L23.8012 10.4829C24.9868 10.0519 26.3148 10.3521 27.1998 11.2511C28.8437 12.9213 28.2124 15.7319 26.0121 16.5386L23.727 17.3764L40.6527 17.3626C42.4862 17.3611 43.9739 18.8463 43.9754 20.6798C43.9769 22.5134 42.4917 24.001 40.6581 24.0025ZM40.6543 19.3626C41.3833 19.362 41.9748 19.9525 41.9754 20.6815C41.976 21.4105 41.3855 22.0019 40.6565 22.0025L39.9736 22.0031C39.9753 21.9784 39.9763 21.9536 39.9764 21.9286L39.9764 21.9229C39.9757 21.0945 39.0797 20.4236 37.9751 20.4245C36.8706 20.4254 35.9757 21.0977 35.9764 21.9262C35.9764 21.9531 35.9774 21.9798 35.9792 22.0063L25.4942 22.0149L25.4959 24.0149L31.0787 24.0104C31.631 24.0099 32.079 24.4573 32.0795 25.0095L32.08 25.6495C32.0805 26.2018 31.6331 26.6498 31.0808 26.6503L25.498 26.6549L25.4997 28.6549L30.3267 28.6509C30.8789 28.6505 31.327 29.0978 31.3275 29.6501L31.328 30.29C31.3285 30.8423 30.8811 31.2904 30.3288 31.2908L23.2221 31.2966L23.2237 33.2966L26.9596 33.2936C27.5119 33.2931 27.96 33.7405 27.9605 34.2928L27.961 34.9327C27.9614 35.485 27.5141 35.9331 26.9618 35.9335L15.8983 35.9426C10.4249 35.9471 5.98422 31.5136 5.97974 26.0402C5.97632 21.8696 8.5844 18.1431 12.5041 16.7181L24.4845 12.3625C24.9345 12.199 25.4385 12.3129 25.7744 12.6541C26.3983 13.288 26.1587 14.3547 25.3236 14.6608L23.0385 15.4987C20.9393 16.2683 21.4928 19.3783 23.7286 19.3764L40.6543 19.3626Z" fill="black"/>
<path d="M37.9858 33.4244C39.6658 33.4231 40.9848 32.1648 40.9835 30.5648C40.9823 29.0791 37.9793 25.4244 37.9793 25.4244C37.9793 25.4244 34.9822 28.9697 34.9835 30.5697C34.9848 32.1697 36.3058 33.4258 37.9858 33.4244Z" fill="black"/>
</svg>

<svg
  xmlns="http://www.w3.org/2000/svg"
  width="24"
  height="24"
  viewBox="0 0 24 24"
  fill="none"
  stroke="currentColor"
  stroke-width="2"
  stroke-linecap="round"
  stroke-linejoin="round"
>
  <path
    fill-rule="evenodd"
    d="m40.658 24.003-6.75.005c.11.313.171.65.172 1v.64c0 .987-.475 1.863-1.21 2.41.29.46.457 1.006.458 1.59v.64a3 3 0 0 1-2.998 3.003h-.541c.11.313.171.65.171 1l.001.64a3 3 0 0 1-2.998 3.003l-11.063.009c-6.578.005-11.915-5.323-11.92-11.901a11.91 11.91 0 0 1 7.84-11.204l11.981-4.355a3.22 3.22 0 0 1 3.399.768c1.644 1.67 1.012 4.48-1.188 5.288l-2.285.837 16.926-.013a3.32 3.32 0 0 1 .005 6.64m-.004-4.64a1.32 1.32 0 0 1 .002 2.64h-.682l.002-.074v-.006c0-.828-.896-1.5-2-1.498-1.105 0-2 .673-2 1.501q0 .04.003.08l-10.485.009.002 2 5.583-.005a1 1 0 0 1 1 1l.001.64a1 1 0 0 1-1 1l-5.582.005.002 2 4.827-.004a1 1 0 0 1 1 1l.001.639a1 1 0 0 1-1 1l-7.106.007.002 2 3.736-.003a1 1 0 0 1 1 .999l.001.64a1 1 0 0 1-1 1l-11.063.01c-5.473.004-9.914-4.43-9.918-9.903a9.91 9.91 0 0 1 6.524-9.322l11.98-4.355a1.224 1.224 0 0 1 .84 2.298l-2.286.838c-2.099.77-1.545 3.88.69 3.877z"
    clip-rule="evenodd"
  />
  <path d="M37.986 33.424c1.68 0 2.999-1.26 2.998-2.86-.002-1.485-3.005-5.14-3.005-5.14s-2.997 3.546-2.995 5.146c0 1.6 1.322 2.856 3.002 2.854" />
</svg>
